X: 641
T: the Four Courts   #2
T: No. 2
R: reel
%S: s:4 b:32(8+8+8+8)
B: Francis O'Neill: "The Dance Music of Ireland" (1907) no. 641
Z: Frank Nordberg - http://www.musicaviva.com
F: http://www.musicaviva.com/abc/tunes/ireland/oneill-1001/0641/oneill-1001-0641-1.abc
N: Compacted via repeats, multiple endings [JC]
N: Slurring was also ignored, for more compaction (and at the request of some teachers).
N: The fingerings in bar 25 are O'Neill's originals.
M: C|
L: 1/8
K: A
"^A"\
|: c2Ac B2Ad | c2Ac BcdB | c2Ac B2Ac | d2fd BcdB :|
"^B"\
|: ceeg f2df | e2cA BcdB | ceeg (3fga [1 ec | d2fd BcdB :|[2 ce | d2 fd BcdB ||
"^C"\
[| a2eg a2eg | a2ec BcdB | a2eg a2ec | d2fd BcdB ||
|| agbg agbg | agec BcdB | agbg agec | d2fd BcdB |]
"^D"\
|: "^4"eAcA "^4"eAcA | eAcA BcdB | eAcA eAcA | d2fd BcdB :|
